X:3059
T:John Brown's Body
O:england
C:Trad
L:1/8
M:6/8
K:G
Q:420
"G"d3 d3 | "G"B2d g2a | "G"b2b b2a | "G"g6 |
"C"e3 e3 | "C"g2f g2e | "G"d2e d2c | "G"B6 |
"G"d3 d3 | "G"B2d g2a | "B"b2b b2a | "Em"g3 g2g |
"Am"a3 a3 | "D7"g3 f3 | "G"g6- | "G"g6 ||


